internet_ti_dot_me/static/mask-icon.svg

<?xml version="1.0" encoding="UTF-8"?>
<svg width="256px" height="256px" viewBox="0 0 256 256" version="1.1" xmlns="http://www.w3.org/2000/svg" xmlns:xlink="http://www.w3.org/1999/xlink">
    <title>mask-icon</title>
    <g id="mask-icon" stroke="none" stroke-width="1" fill="none" fill-rule="evenodd">
        <path d="M128.17461,247.271689 C108.880784,247.271689 91.6310444,244.665147 76.4253917,239.452064 C61.219739,234.238981 48.322875,226.625523 37.7347997,216.61169 C27.1467243,206.597858 19.0586112,194.433997 13.4704603,180.120107 C7.8823094,165.806217 5.05882264,149.548466 5,131.346853 C5.05882264,113.204145 7.8823094,96.6076904 13.4704603,81.5574893 C19.0586112,66.5072883 27.2496639,53.4893062 38.0436185,42.503543 C48.8375731,31.5177799 62.087373,23.0207486 77.7930181,17.0124491 C93.4986632,11.0041497 111.46898,8 131.703969,8 C149.938987,8 166.394621,10.4887319 181.07087,15.4661956 C195.747119,20.4436594 208.305753,27.7478665 218.746771,37.3788171 C229.18779,47.0097676 237.187669,58.8349256 242.746409,72.8542909 C248.305148,86.8736562 251.055107,102.954693 250.998202,121.097401 C251.055107,133.467429 249.761009,144.291204 247.11399,153.568725 C244.466971,162.846246 240.555266,170.665871 235.378873,177.0276 C230.202481,183.389329 223.864341,188.33734 216.364454,191.871634 C208.864568,195.405928 200.291168,197.614861 190.644255,198.498435 C181.997326,199.323103 175.791538,198.910769 172.026889,197.261432 C168.26224,195.612095 165.8211,193.255899 164.70347,190.192844 C163.58584,187.12979 162.7035,183.890021 162.056451,180.473537 L160.997644,180.473537 C159.644723,184.12564 156.497712,187.306505 151.55661,190.01613 C146.615508,192.725755 140.792067,194.757974 134.086285,196.112787 C127.380504,197.467599 120.704135,197.909386 114.057176,197.438147 C107.586686,196.966908 101.116195,195.405928 94.6457047,192.755207 C88.1752142,190.104487 82.2488332,186.128407 76.8665615,180.826966 C71.4842899,175.525525 67.1755314,168.707284 63.9402862,160.372241 C60.7050409,152.037198 59.058007,142.008639 58.9991844,130.286565 C59.058007,118.505586 60.6903353,108.491753 63.8961692,100.245068 C67.1020031,91.9983822 71.2489993,85.1948667 76.3371578,79.8345211 C81.4253162,74.4741756 86.9252331,70.3508328 92.8369085,67.4644929 C98.7485839,64.578153 104.410263,62.6637438 109.821946,61.7212655 C116.939486,60.4253578 123.851146,60.2633693 130.556927,61.2353001 C137.262708,62.2072309 142.968504,63.8271155 147.674316,66.094954 C152.380127,68.3627926 155.291848,70.7926195 156.409478,73.384435 L157.821221,73.384435 L157.821221,63.4884124 L191.350126,63.4884124 L191.350126,153.966333 C191.467772,157.500627 192.070704,159.856823 193.158923,161.034921 C194.247141,162.213019 195.526534,162.802068 196.9971,162.802068 C199.761764,162.802068 202.364666,161.196909 204.805805,157.986592 C207.246945,154.776276 209.217504,149.857717 210.717481,143.230916 C212.217458,136.604115 212.938036,128.165989 212.879213,117.916537 C212.938036,104.72184 211.246885,93.691898 207.80576,84.8267111 C204.364636,75.9615242 199.761764,68.8340317 193.997145,63.4442337 C188.232526,58.0544357 181.806153,53.9899978 174.718025,51.2509202 C167.629896,48.5118425 160.350595,46.6857907 152.880119,45.7727648 C145.409644,44.8597389 138.350927,44.403226 131.703969,44.403226 C116.468905,44.403226 103.366161,46.6857907 92.3957387,51.2509202 C81.4253162,55.8160496 72.4107465,62.0599686 65.3520296,69.9826772 C58.2933127,77.9053858 53.0728033,86.9472874 49.6905014,97.108382 C46.3081996,107.269477 44.5876373,117.975442 44.5288147,129.226277 C44.5876373,142.479878 46.5140788,154.1725 50.3081392,164.304143 C54.1021995,174.435785 59.6609391,182.91809 66.9843579,189.751058 C74.3077766,196.584026 83.337052,201.75293 94.072184,205.257772 C104.807316,208.762613 117.115954,210.515034 130.998097,210.515034 C137.997991,210.515034 144.792006,210.117426 151.380142,209.32221 C157.968278,208.526993 164.02701,207.466705 169.556338,206.141345 C175.085666,204.815985 179.762066,203.328636 183.585538,201.679299 L194.879485,233.487943 C191.173658,235.961949 185.98256,238.244514 179.306191,240.335638 C172.629821,242.426761 164.924055,244.105551 156.188893,245.372006 C147.453731,246.638461 138.115636,247.271689 128.17461,247.271689 Z M127.871193,160.787946 C134.61739,160.787946 139.911687,159.543312 143.754086,157.054045 C147.596485,154.564777 150.294964,150.933375 151.849523,146.159839 C153.404081,141.386302 154.093366,135.602416 153.917379,128.80818 C153.858716,123.653932 153.198762,118.836467 151.937516,114.355785 C150.676271,109.875104 148.15378,106.243702 144.370044,103.461579 C140.586307,100.679457 134.85204,99.2883954 127.167242,99.2883954 C120.773021,99.2883954 115.361398,100.415887 110.932373,102.670871 C106.503348,104.925854 103.13025,108.264401 100.813078,112.686512 C98.4959057,117.108622 97.3079885,122.599654 97.2493259,129.159606 C97.3079885,134.548138 98.2905867,139.658458 100.197121,144.490565 C102.103654,149.322673 105.271434,153.24693 109.700459,156.263336 C114.129483,159.279743 120.186395,160.787946 127.871193,160.787946 Z" id="@" fill="#000000" fill-rule="nonzero"></path>
    </g>
</svg>

<svg width="256" height="256" xmlns="http://www.w3.org/2000/svg"><path d="M128.175 247.272c-19.294 0-36.544-2.607-51.75-7.82-15.205-5.213-28.102-12.826-38.69-22.84-10.588-10.014-18.676-22.178-24.265-36.492C7.882 165.806 5.06 149.548 5 131.347c.059-18.143 2.882-34.74 8.47-49.79 5.589-15.05 13.78-28.068 24.574-39.053C48.838 31.518 62.087 23.02 77.793 17.012 93.499 11.004 111.469 8 131.704 8c18.235 0 34.69 2.489 49.367 7.466 14.676 4.978 27.235 12.282 37.676 21.913 10.44 9.63 18.44 21.456 24 35.475 5.558 14.02 8.308 30.1 8.251 48.243.057 12.37-1.237 23.194-3.884 32.472-2.647 9.277-6.559 17.097-11.735 23.459-5.177 6.361-11.515 11.31-19.015 14.844-7.5 3.534-16.073 5.743-25.72 6.626-8.647.825-14.852.413-18.617-1.237-3.765-1.649-6.206-4.005-7.324-7.068-1.117-3.063-2-6.303-2.647-9.72h-1.058c-1.353 3.653-4.5 6.834-9.441 9.543-4.941 2.71-10.765 4.742-17.47 6.097-6.706 1.355-13.383 1.796-20.03 1.325-6.47-.471-12.94-2.032-19.411-4.683-6.47-2.65-12.397-6.627-17.78-11.928-5.382-5.301-9.69-12.12-12.926-20.455-3.235-8.335-4.882-18.363-4.94-30.085.058-11.781 1.69-21.795 4.896-30.042s7.353-15.05 12.441-20.41c5.088-5.36 10.588-9.484 16.5-12.37 5.912-2.887 11.573-4.801 16.985-5.744 7.117-1.296 14.03-1.458 20.735-.486 6.706.972 12.412 2.592 17.117 4.86 4.706 2.268 7.618 4.698 8.735 7.29h1.412v-9.897h33.53v90.478c.117 3.535.72 5.89 1.808 7.069 1.088 1.178 2.368 1.767 3.838 1.767 2.765 0 5.368-1.605 7.809-4.815 2.44-3.21 4.412-8.13 5.911-14.756 1.5-6.627 2.221-15.065 2.162-25.314.059-13.195-1.632-24.225-5.073-33.09-3.441-8.865-8.044-15.993-13.809-21.383-5.764-5.39-12.19-9.454-19.279-12.193a90.987 90.987 0 0 0-21.838-5.478c-7.47-.913-14.53-1.37-21.176-1.37-15.235 0-28.338 2.283-39.308 6.848-10.97 4.565-19.985 10.809-27.044 18.732-7.059 7.922-12.28 16.964-15.661 27.125-3.383 10.161-5.103 20.867-5.162 32.118.059 13.254 1.985 24.947 5.78 35.078 3.793 10.132 9.352 18.614 16.675 25.447 7.324 6.833 16.353 12.002 27.088 15.507 10.735 3.505 23.044 5.257 36.926 5.257 7 0 13.794-.398 20.382-1.193 6.588-.795 12.647-1.855 18.176-3.18 5.53-1.326 10.206-2.813 14.03-4.463l11.293 31.809c-3.705 2.474-8.896 4.757-15.573 6.848-6.676 2.09-14.382 3.77-23.117 5.036-8.735 1.266-18.073 1.9-28.014 1.9zm-.304-86.484c6.746 0 12.04-1.245 15.883-3.734 3.842-2.49 6.541-6.12 8.096-10.894 1.554-4.774 2.243-10.558 2.067-17.352-.058-5.154-.718-9.972-1.98-14.452-1.26-4.48-3.783-8.112-7.567-10.894-3.784-2.783-9.518-4.174-17.203-4.174-6.394 0-11.806 1.128-16.235 3.383s-7.802 5.593-10.119 10.016c-2.317 4.422-3.505 9.913-3.564 16.473.059 5.388 1.042 10.498 2.948 15.33 1.907 4.833 5.074 8.757 9.503 11.773 4.43 3.017 10.486 4.525 18.171 4.525z" fill="#000" fill-rule="nonzero"/></svg>
